icon/lg/openstack.svg

<?xml version="1.0" encoding="UTF-8"?>
<svg viewBox="0 0 512 94" version="1.1" xmlns="http://www.w3.org/2000/svg" xmlns:xlink="http://www.w3.org/1999/xlink" preserveAspectRatio="xMidYMid" height="1em" width="1em">
  <g>
    <path d="M21.6305089,63.8678768 L21.6305089,67.2931667 C21.6305089,69.9507193 23.7841107,72.1043211 26.4416632,72.1043211 L26.4416632,72.1043211 L69.3325922,72.1043211 C71.9901447,72.1043211 74.1437465,69.9507193 74.1437465,67.2931667 L74.1437465,67.2931667 L74.1437465,63.8678768 L95.7703183,63.8678768 L95.7703183,84.8369504 C95.7703183,89.7307842 91.7662725,93.73483 86.8724388,93.73483 L86.8724388,93.73483 L8.89787952,93.73483 C4.00404579,93.73483 0,89.7307842 0,84.8369504 L0,84.8369504 L0,63.8678768 L21.6305089,63.8678768 Z M21.6265718,36.0521605 L21.6265718,57.6787323 L0,57.6787323 L0,36.0521605 L21.6265718,36.0521605 Z M95.7703183,36.0521605 L95.7703183,57.6787323 L74.1437465,57.6787323 L74.1437465,36.0521605 L95.7703183,36.0521605 Z M86.8724388,0 C91.7662725,0 95.7703183,4.00404579 95.7703183,8.90181664 L95.7703183,8.90181664 L95.7703183,29.8669531 L74.1437465,29.8669531 L74.1437465,26.4416632 C74.1437465,23.7841107 71.9901447,21.6305089 69.3325922,21.6305089 L69.3325922,21.6305089 L26.4377261,21.6305089 C23.7801736,21.6305089 21.6265718,23.7841107 21.6265718,26.4416632 L21.6265718,26.4416632 L21.6265718,29.8669531 L0,29.8669531 L0,8.89787952 C0,4.00404579 4.00404579,0 8.89787952,0 L8.89787952,0 Z" fill="#DA1A32"/>
    <path d="M192.572161,21.6108233 C202.28896,21.6108233 211.458501,29.7685253 211.458501,46.182357 L211.458501,46.182357 L211.458501,47.4658564 C211.458501,63.7851974 202.383451,72.033453 192.572161,72.033453 C185.512914,72.033453 181.296264,68.0884639 178.363113,63.7812603 L178.363113,63.7812603 L178.363113,84.959001 L168.004564,84.959001 L168.004564,22.524234 L178.363113,22.524234 L178.363113,30.3197213 C181.386818,25.646366 185.603467,21.6108233 192.572161,21.6108233 Z M450.031911,21.6108233 C457.000604,21.6108233 461.583406,24.1778222 465.618949,28.2133649 L465.618949,28.2133649 L459.843201,35.8238079 C457.276202,33.1662554 454.433605,30.9654082 450.031911,30.9654082 C443.244325,30.9654082 438.295372,37.473459 438.295372,46.6429994 L438.295372,46.6429994 L438.295372,47.0997048 C438.295372,56.5409061 443.244325,62.8678497 450.303572,62.8678497 C454.520222,62.8678497 457.362819,60.7614932 460.205416,57.9188963 L460.205416,57.9188963 L465.796119,64.7930988 C461.945621,69.1003024 457.087221,72.1240066 449.665759,72.1279438 C437.015809,72.1279438 427.846269,61.9505019 427.846269,47.4658564 L427.846269,47.4658564 L427.846269,46.5485087 C427.846269,32.0638632 437.28747,21.6108233 450.031911,21.6108233 Z M237.829296,21.6108233 C251.030442,21.6108233 257.999135,32.6150593 257.999135,47.1902584 L257.999135,47.1902584 L257.99892,47.4890848 C257.997525,48.2235498 257.987061,49.4958328 257.908581,50.7651587 L257.908581,50.7651587 L227.470747,50.7651587 C228.384157,58.9228606 233.427601,63.324555 239.754545,63.324555 C244.337347,63.324555 247.73114,61.3087522 250.939888,58.1905572 L250.939888,58.1905572 L256.349484,64.6080544 C251.94779,69.2853468 246.538194,72.1240066 239.293902,72.1240066 C226.82506,72.1240066 217.10826,62.5922516 217.10826,47.3713657 L217.10826,47.3713657 L217.10826,46.6390623 C217.10826,32.0638632 225.911649,21.6108233 237.829296,21.6108233 Z M139.866004,21.6068862 C152.700999,21.6068862 162.1422,32.0599261 162.1422,46.4540179 L162.1422,46.4540179 L162.1422,47.280812 C162.1422,61.5843502 152.606508,72.1240066 139.684897,72.1200706 C126.849903,72.1200706 117.404764,61.7615204 117.404764,47.3674286 L117.404764,47.3674286 L117.404764,46.5445716 C117.404764,32.2410334 126.936519,21.6068862 139.866004,21.6068862 Z M328.713655,21.7919306 C334.12325,21.7919306 339.898998,23.7171798 344.481799,27.016482 L344.481799,27.016482 L340.080105,34.626925 C336.414651,32.1544168 332.379108,30.3197213 328.52861,30.3197213 C324.678112,30.3197213 322.386711,32.4300149 322.386711,35.0875674 L322.386711,35.0875674 L322.386711,35.2726118 C322.386711,38.4813604 326.237209,40.1310115 331.922403,42.6980104 C339.438355,46.0918034 345.123549,49.5722129 345.123549,57.1826558 L345.123549,57.1826558 L345.123549,57.2732095 C345.123549,66.8089016 337.883195,72.033453 328.532547,72.0373901 C322.7568,72.0373901 316.067642,69.9270966 310.473002,65.2537413 L310.473002,65.2537413 L315.331401,57.8283427 C319.733096,61.3993058 324.410388,63.5095994 328.717592,63.5095994 C333.024795,63.5095994 335.501241,61.2181986 335.501241,58.1905572 L335.501241,58.1905572 L335.501241,58.1000036 C335.501241,54.615657 331.741296,53.0565595 325.965548,50.5801143 C318.721257,47.4619193 312.669912,44.1626171 312.669912,36.1860224 L312.669912,36.1860224 L312.669912,36.000978 C312.669912,27.29208 319.638605,21.7919306 328.713655,21.7919306 Z M402.597552,21.976975 C408.924495,21.976975 413.782895,23.7171798 416.90109,26.9259283 C420.109838,30.1346769 421.759489,34.902523 421.759489,40.9578056 L421.759489,40.9578056 L421.759489,71.1200424 L411.582048,71.1200424 L411.582048,65.1592505 C408.739451,69.2814097 404.432247,72.033453 398.105304,72.033453 C390.038155,72.033453 383.254506,66.6277943 383.254506,57.1826558 L383.254506,57.1826558 L383.254506,56.7259505 C383.254506,46.2768478 390.2232,41.14285 400.491195,41.14285 C405.073997,41.14285 408.377236,41.965707 411.676538,43.0680992 L411.676538,43.0680992 L411.676538,41.0483593 C411.676538,34.5403084 407.82604,31.1465154 401.223498,31.1465154 C396.546206,31.1465154 392.695708,32.6150593 389.486959,34.079666 L389.486959,34.079666 L386.553809,25.8274733 C391.227164,23.5360725 396.089501,21.976975 402.597552,21.976975 Z M366.383969,9.40970445 L366.383969,22.5202968 L377.293715,22.5202968 L377.293715,31.4142393 L366.383969,31.4142393 L366.383969,57.2692724 C366.383969,61.029217 368.309218,62.5883145 371.608521,62.5883145 C373.628261,62.5883145 375.462956,62.1316092 377.203161,61.2142614 L377.203161,61.2142614 L377.203161,69.7420522 C374.821206,71.0255516 372.069163,71.8523457 368.580879,71.8445272 C361.431079,71.8445272 356.021483,68.8207673 356.021483,59.3756288 L356.021483,59.3756288 L356.021483,31.4142393 L352.407212,31.4142393 L350.706378,22.5202968 L356.02542,22.5202968 L356.02542,9.40970445 L366.383969,9.40970445 Z M288.421221,21.6108233 C297.771869,21.6108233 303.362572,28.2094278 303.362572,38.571914 L303.362572,38.571914 L303.362572,71.1200424 L293.004023,71.1200424 L293.004023,41.5050646 C293.004023,34.7214157 289.795274,30.9614711 284.295125,30.9614711 C278.885529,30.9614711 275.125585,34.9970138 275.125585,41.690109 L275.125585,41.690109 L275.125585,71.1200424 L264.767035,71.1200424 L264.767035,22.5281711 L275.125585,22.5281711 L275.125585,29.6779716 C277.877628,25.370768 281.81868,21.6108233 288.421221,21.6108233 Z M497.505642,45.8988847 L511.998161,71.1161052 L499.986024,71.1161052 L490.233791,53.7140577 L497.505642,45.8988847 Z M482.658782,4.92533066 L482.658782,43.8870191 L499.253721,22.524234 L511.541456,22.524234 L482.658782,57.0921022 L482.658782,71.1161052 L472.300233,71.1161052 L472.300233,4.92533066 L482.658782,4.92533066 Z M402.782596,48.1981598 C396.825741,48.1981598 393.341395,51.221864 393.341395,56.3558617 L393.341395,56.3558617 L393.341395,56.5409061 C393.341395,61.3993058 396.73125,64.1513491 401.223498,64.2419027 C407.18429,64.3324564 411.767092,60.2969137 411.767092,54.7967643 L411.767092,54.7967643 L411.767092,49.9383646 C409.385138,48.9304632 406.266943,48.1981598 402.782596,48.1981598 Z M139.677023,30.7764267 C132.436669,30.7764267 127.759376,37.4655848 127.759376,46.5445716 L127.759376,46.5445716 L127.759376,47.0957676 C127.759376,56.1747544 132.80282,63.0489569 139.862067,63.0450215 C147.102422,63.0450215 151.779714,56.261371 151.779714,47.1863213 L151.779714,47.1863213 L151.779714,46.6351252 C151.779714,37.5600755 146.73627,30.7764267 139.677023,30.7764267 Z M189.729564,30.7803638 C183.497111,30.7803638 178.178069,36.8277722 178.178069,46.3634643 L178.178069,46.3634643 L178.178069,47.280812 C178.178069,56.8165042 183.497111,62.8678497 189.729564,62.8717868 C196.056507,62.8717868 201.005461,57.0054857 201.005461,47.2847492 L201.005461,47.2847492 L201.005461,46.457955 C201.005461,36.7411556 195.965954,30.7803638 189.729564,30.7803638 Z M237.829296,30.3197213 C232.144102,30.3197213 228.112496,35.3631654 227.380193,43.611421 L227.380193,43.611421 L247.916184,43.611421 C247.364988,35.9104244 243.880641,30.3197213 237.829296,30.3197213 Z" fill="#4E4540"/>
  </g>
</svg>

<svg width="512" height="94" xmlns="http://www.w3.org/2000/svg" preserveAspectRatio="xMidYMid"><path d="M21.63 63.868v3.425a4.81 4.81 0 0 0 4.812 4.811h42.89a4.81 4.81 0 0 0 4.812-4.81v-3.426H95.77v20.969c0 4.894-4.004 8.898-8.898 8.898H8.898C4.004 93.735 0 89.73 0 84.837v-20.97h21.63Zm-.003-27.816V57.68H0V36.052h21.627Zm74.143 0V57.68H74.144V36.052H95.77ZM86.872 0c4.894 0 8.898 4.004 8.898 8.902v20.965H74.144v-3.425a4.81 4.81 0 0 0-4.811-4.811H26.438a4.81 4.81 0 0 0-4.811 4.81v3.426H0V8.897C0 4.005 4.004 0 8.898 0Z" fill="#DA1A32"/><path d="M192.572 21.61c9.717 0 18.887 8.159 18.887 24.572v1.284c0 16.32-9.076 24.567-18.887 24.567-7.06 0-11.276-3.945-14.209-8.252V84.96h-10.358V22.524h10.358v7.796c3.024-4.674 7.24-8.71 14.21-8.71Zm257.46 0c6.969 0 11.551 2.568 15.587 6.603l-5.776 7.61c-2.567-2.657-5.41-4.858-9.811-4.858-6.788 0-11.737 6.508-11.737 15.678v.457c0 9.44 4.95 15.768 12.009 15.768 4.216 0 7.059-2.107 9.901-4.95l5.591 6.875c-3.85 4.307-8.709 7.331-16.13 7.335-12.65 0-21.82-10.177-21.82-24.662v-.917c0-14.485 9.441-24.938 22.186-24.938Zm-212.203 0c13.201 0 20.17 11.005 20.17 25.58v.3a56.602 56.602 0 0 1-.09 3.275H227.47c.913 8.158 5.957 12.56 12.284 12.56 4.582 0 7.976-2.016 11.185-5.134l5.41 6.417c-4.402 4.677-9.812 7.516-17.056 7.516-12.469 0-22.186-9.532-22.186-24.753v-.732c0-14.575 8.804-25.028 20.721-25.028Zm-97.963-.003c12.835 0 22.276 10.453 22.276 24.847v.827c0 14.303-9.535 24.843-22.457 24.84-12.835 0-22.28-10.36-22.28-24.754v-.822c0-14.304 9.532-24.938 22.461-24.938Zm188.848.185c5.41 0 11.185 1.925 15.768 5.224l-4.402 7.61c-3.665-2.472-7.7-4.306-11.551-4.306-3.85 0-6.142 2.11-6.142 4.768v.185c0 3.208 3.85 4.858 9.535 7.425 7.516 3.394 13.202 6.874 13.202 14.485v.09c0 9.536-7.24 14.76-16.591 14.764-5.776 0-12.465-2.11-18.06-6.783l4.858-7.426c4.402 3.571 9.08 5.682 13.387 5.682s6.783-2.292 6.783-5.32v-.09c0-3.484-3.76-5.043-9.535-7.52-7.245-3.118-13.296-6.417-13.296-14.394v-.185c0-8.709 6.969-14.21 16.044-14.21Zm73.884.185c6.326 0 11.185 1.74 14.303 4.949 3.209 3.209 4.858 7.977 4.858 14.032V71.12h-10.177v-5.96c-2.843 4.121-7.15 6.873-13.477 6.873-8.067 0-14.85-5.405-14.85-14.85v-.457c0-10.45 6.968-15.583 17.236-15.583 4.583 0 7.886.823 11.186 1.925v-2.02c0-6.508-3.851-9.901-10.454-9.901-4.677 0-8.527 1.468-11.736 2.933l-2.933-8.253c4.673-2.29 9.536-3.85 16.044-3.85ZM366.384 9.41v13.11h10.91v8.894h-10.91V57.27c0 3.76 1.925 5.32 5.225 5.32 2.02 0 3.854-.457 5.594-1.375v8.528c-2.382 1.284-5.134 2.11-8.622 2.103-7.15 0-12.56-3.024-12.56-12.47v-27.96h-3.614l-1.7-8.895h5.318V9.41h10.359Zm-77.963 12.2c9.35 0 14.942 6.6 14.942 16.962V71.12h-10.359V41.505c0-6.784-3.209-10.544-8.709-10.544-5.41 0-9.17 4.036-9.17 10.73V71.12h-10.358V22.528h10.359v7.15c2.752-4.307 6.693-8.067 13.295-8.067ZM497.506 45.9l14.492 25.217h-12.012l-9.752-17.402 7.272-7.815ZM482.659 4.925v38.962l16.595-21.363h12.287L482.66 57.092v14.024H472.3V4.926h10.359Zm-79.876 43.273c-5.957 0-9.442 3.024-9.442 8.158v.185c0 4.858 3.39 7.61 7.882 7.7 5.961.091 10.544-3.944 10.544-9.444v-4.859c-2.382-1.008-5.5-1.74-8.984-1.74ZM139.677 30.776c-7.24 0-11.918 6.69-11.918 15.769v.55c0 9.08 5.044 15.954 12.103 15.95 7.24 0 11.918-6.784 11.918-15.859v-.55c0-9.076-5.044-15.86-12.103-15.86Zm50.053.004c-6.233 0-11.552 6.048-11.552 15.583v.918c0 9.536 5.32 15.587 11.552 15.59 6.327 0 11.275-5.866 11.275-15.586v-.827c0-9.717-5.039-15.678-11.275-15.678Zm48.1-.46c-5.686 0-9.718 5.043-10.45 13.291h20.536c-.551-7.7-4.035-13.291-10.087-13.291Z" fill="#4E4540"/></svg>
